!!!!SEGMENT: pl-wtm--1351-fp-4576--001-003_stojowski-zygmunt--vier-stucke-quatre-morceaux-op-26-3-chant-d-amour.krn
!!!cenid: 19xx:156
!!!COM: Stojowski, Zygmunt
!!!COM-rismID: pe41019736
!!!CDT: 1870-1946
!!!CNT: Polish
!!!GTL: Vier Stücke/Quatre morceaux Op. 26
!!!OTL: 3. Chant d’amour
!!!OMV: 003
!!!PDT:
!!!AGN:
!!!YEC: Copyright 2022 Narodowy Instytut Fryderyka Chopina (https://polishscores.org)
!!!YEM: License CC-BY-4.0 (https://creativecommons.org/licenses/by/4.0)
!!!SMS-siglum: PL-Wtm
!!!SMS-shelfmark: 1351 fp 4576
!!!SMS-variant:
!!!SMS-altvar:
!!!SMS-shelfwork: 001-003 G
!!!NIFC-rismSourceID: 1001214689
!!!NIFC-rismChildID: 1001214689
!!!NIFC-islandoraID: pl-wtm:83036
!!!URL-pdf-islandora: https://repozytorium.nifc.pl/islandora/object/pl-wtm%3A83036/datastream/PDF/view
!!!URL-scan: https://polish.musicsources.pl/pl/lokalizacje/galeria/druki-muzyczne/18547/11 @EN{Scan on Polish Music Sources Website} @PL{Skany w portalu Dziedzictwo Muzyki Polskiej w otwartym dostępie}
!!!IIIF:
!!!ONB-nifc:
!!!AIN: 1 piano
!!!key: G-
**kern	**fing	**kern	**fing	**dynam
*part1	*	*part1	*	*part1
*staff2	*	*staff1	*	*staff1/2
*group1	*	*group1	*	*
*ICklav	*	*ICklav	*	*
*Ipiano	*	*Ipiano	*	*
*I"Pianoforte	*	*I"Pianoforte	*	*
*	*	*I'	*	*
*clefF4	*	*clefG2	*	*
*kcancel	*	*kcancel	*	*
*k[b-e-a-d-g-c-]	*	*k[b-e-a-d-g-c-]	*	*
*G-:	*	*G-:	*	*
*M4/4	*	*M4/4	*	*
*met(c)	*	*met(c)	*	*
=1	=1	=1	=1	=1
!!LO:TX:a:B:t=Andante.
4GGG-^>/	.	1r	.	.
*clefG2	*	*	*	*
!LO:TX:a:i:t=sotto voce	!	!	!	!
(8b-L 8g- 8d-'/	.	.	.	.
8b-J 8g- 8d-'/	.	.	.	.
8b-L 8g- 8d-'/	.	.	.	.
8b- 8g- 8d-'/	.	.	.	.
8b- 8g- 8d-'/	.	.	.	.
8b-J 8g- 8d-'/)	.	.	.	.
=2	=2	=2	=2	=2
8b-L 8g- 8d-/	.	4r	.	.
8b- 8g- 8d-/	.	.	.	.
!	!	!LO:TX:b:i:t=molto espressivo	!	!
8b- 8g- 8d-/	.	(2dd-\	.	.
8b-J 8g- 8d-/	.	.	.	.
8b-L 8g- 8d-/	.	.	.	.
8b- 8g- 8d-/	.	.	.	.
8b- 8g- 8cn/	.	8ee-\L	.	.
8b-J 8e- 8c/	.	8gg-\J	.	.
=3	=3	=3	=3	=3
8g-L 8e- 8c-X/	.	8bb-\L	.	.
8a- 8e- 8c-/	.	8ff\J	.	.
8f 8e- 8c-/	.	[4aa-\	.	.
8fJ 8d- 8c-/	.	.	.	.
8fL 8d- 8B-/	.	8aa-\L]	.	.
8g- 8d- 8B-/	.	8ee-\	.	.
8g- 8cn 8B--/	.	8gg-\	.	.
8g-J 8c 8B--/	.	8ff\J	.	.
*clefF4	*	*	*	*
!!LO:LB:g=original
=4	=4	=4	=4	=4
8g-L 8c-X 8A-\	.	4.ee-\	.	.
8g- 8c- 8A-\	.	.	.	.
8f 8c- 8A-\	.	.	.	.
8fJ 8c- 8A-\	.	8dd-\	.	.
8fL 8c- 8A-\	.	4a-/	.	.
8f 8c- 8A-\	.	.	.	.
8f 8d- 8A--\	.	4an/	.	.
8fJ 8d- 8A--\	.	.	.	.
=5	=5	=5	=5	=5
(<8f-XL 8d- 8A--\	.	4b-\	.	.
8f- 8d- 8G-\)	.	.	.	<
!LO:N:n=2:acc=n-	!	!	!	!
(<8f- 8A-X 8G-'<\	.	8cc-\L	.	.
8f-J 8B- 8G-'<\)	.	8dd-\J	.	.
.	.	.	.	[
8G-L 8C-\	.	8ddn\	.	.
(<8e- 8c- 8G-\	.	4ee-\)	.	.
8e- 8c- 8Gn\	.	.	.	>
8e-J 8c- 8A-\)	.	(8ee-\	.	]]
=6	=6	=6	=6	=6
(<8g-XL 8e- 8B--\	.	4ccn\	.	.
8g- 8e- 8A-\)	.	.	.	<
(<8g- 8d- 8A-'<\	.	8dd-\L	.	.
8g-J 8cn 8A-'<\)	.	8ee-\J	.	.
8A-L 8D-\	.	8een\	.	[
(<8f 8d- 8A-\	.	4ff\)	.	.
8f 8d- 8An\	.	.	.	.
!LO:N:n=3:acc=n-	!	!	!	!
8fJ 8d- 8B-X\)	.	(8ff\	.	.
!!LO:LB:g=original
=7	=7	=7	=7	=7
(<8a-L 8f 8c-X\	.	4ddn\	.	.
8a- 8f 8B-\)	.	.	.	.
(<8a- 8e- 8B-'<\	.	8ee-\L	.	.
8a-J 8dn 8B-'<\)	.	8ff\J	.	.
8g-L 8f 8B--\	.	4.gg-\	.	>
8g- 8e- 8B--\	.	.	.	.
8g- 8d-X 8A-X\	.	.	.	.
8g-J 8c- 8A-\	.	8aa-\	.	.
.	.	.	.	]
=8	=8	=8	=8	=8
8g-:L 8B-: 8D-:\	.	4ddd-\	.	.
8g- 8d- 8B-\	.	.	.	.
8b- 8g- 8d-\	.	8bb-\L	.	.
8b-J 8g- 8d-\	.	8gg-\J	.	.
8b-L 8g- 8cn\	.	8ee-\L)	.	.
!	!	!LO:TUP:a	!	!
8b-- 8g- 8c\	.	(24ee-\L	.	.
.	.	24ff\	.	.
.	.	24ee-\JJ	.	.
8a- 8g- 8c-X\	.	4dd-\	.	.
8a-J 8f 8c-\	.	.	.	.
=9	=9	=9	=9	=9
8g-L 8f 8B-\	.	4gg-\	.	.
8g- 8e- 8B-\	.	.	.	.
8g- 8e- 8B-\	.	8ee-\L	.	.
8g-J 8e- 8c-\	.	8cc-\J)	.	.
8g-L 8e- 8cn\	.	(8b-\L	.	.
!	!	!LO:TUP:a	!	!
8g- 8e- 8c\	.	24b-\L	.	.
.	.	24cc-X\	.	.
.	.	24b-\JJ	.	.
8f 8e- 8c\	.	4a-/)	.	.
8fJ 8d- 8c\	.	.	.	.
!!LO:LB:g=original
=10	=10	=10	=10	=10
*	*	*^	*	*
8f-XL 8d- 8B-\	.	8dd-:L 8a-:/	2ryy	.	pp
!	!	!LO:TX:b:i:t=cresc.-:ext=ud:problem:text with extention lines	!	!	!
8d- 8E-\	.	(8gn 8f-X'/	.	.	<
8d- 8E-\	.	8a- 8f-'/	.	.	.
8d-J 8E-\	.	8b-J 8g 8e-'/)	.	.	.
8E-L 8AA-/	.	(>8bn 8e- 8Bn/	8ryy	.	.
(8E- 8AA-/	.	4ccn 4e-/)	(8cn\L	.	.
8E- 8GGn/	.	.	8Bn\	.	.
8E-J 8GG-X/)	.	(8cc 8e-/	8B-X\J)	.	[[
=11	=11	=11	=11	=11	=11
8G-L 8Cn 8FF\	.	4an/	8e-L 8An\	.	.
8F 8C 8FF\	.	.	8e- 8A\	.	.
8Gn 8C 8FF\	.	8b-/L	8e- 8B-\	.	.
8AnJ 8C 8FF\	.	8ccn/J)	8e-J 8cn\	.	.
8FL 8BB-\	.	(8cc/	8d-\L	.	.
8F 8BB-\	.	4dd-/)	8d-\	.	>
8F 8BB-\	.	.	8d-\	.	.
8FJ 8BB-\	.	8dd-/	8d-\J	.	.
=12	=12	=12	=12	=12	=12
8FL 8BB-\	.	8dd-/L	4d-\	.	.
!	!	!	!	!	!LO:DY:a
8F 8BB-\	.	8dd-/	.	.	p
!	!	!LO:TX:b:i:t=marcato il canto	!	!	!
8F 8BB-\	.	8dd-/	2d-~\	.	.
8FJ 8BB-\	.	8dd-/J	.	.	.
8FL 8BB-\	.	8dd-/L	.	.	.
8F 8BB-\	.	8dd-/	.	.	.
8G- 8BB--\	.	8ccn/	8e-~\L	.	.
8E-J 8BB--\	.	8cc/J	8g-~\J	.	.
!!LO:LB:g=original
=13	=13	=13	=13	=13	=13
!	!	!	!	!	!
8E-L 8AA-\	.	(8cc-XL 8b-/	8e-\L	.	.
8c- 8AA-\	.	8f/J	8e--\	.	.
8F 8C-\	.	[4a-/	8e--\	.	.
!	!	!	!	!	!LO:HP:a
8FJ 8C-\	.	.	8e--\J	.	<
8FL 8BB-\	.	8a-/L]	8d-\L	.	.
!	!	!LO:N:acc=n-	!	!	!
8G- 8BB--\	.	8e-X/	8d-\	.	.
8E- 8BB--\	.	8g-/	8d-\	.	.
8E-J 8BB--\	.	8f/J)	8d-\J	.	.
=14	=14	=14	=14	=14	=14
8FL 8AA-\	.	[2aa-/	8d-\	.	.
8f 8d- 8A-\	.	.	8ryy	.	.
8f 8B- 8A-\	.	.	4ryy	.	.
8fJ 8B- 8A-\	.	.	.	.	.
8g-L 8B- 8A-\	.	8aa-\L]	2ryy	.	.
8g- 8d- 8A-\	.	(8b-\	.	.	.
8g- 8f 8A-\	.	8dd-\	.	.	.
8g-J 8e- 8A-\	.	8ccn\J)	.	.	.
=15	=15	=15	=15	=15	=15
8FL 8AA-\	.	[2aa-::/	8dd-:: 8a-::\	.	.
8f 8d- 8A-\	.	.	8ryy	.	>
8f 8B- 8A-\	.	.	4ryy	.	.
8fJ 8B- 8A-\	.	.	.	.	.
8g-L 8B- 8A-\	.	8aa-\L]	2ryy	.	.
.	.	.	.	.	]
8g- 8d- 8A-\	.	(8b-\	.	.	.
8g- 8f 8A-\	.	8dd-\	.	.	.
8g-J 8e- 8A-\	.	8ccn\J	.	.	.
*	*	*v	*v	*	*
!!LO:PB:g=original
=16	=16	=16	=16	=16
!	!	!LO:TX:b:i:t=poco stretto	!	!LO:HP:a
8fL 8c-X 8A-\	.	8ee-\L	.	<
8f 8c- 8A-\	.	8ddn\	.	.
8g- 8B- 8A-\	.	8ff\	.	.
8g-J 8B- 8A-\	.	8ee-\J	.	[
!	!	!	!	!LO:HP:a
8cc-XL 8dn 8A-\	.	8gg-\L	.	>
!	!	!LO:TX:b:i:t=slentando	!	!
8cc- 8d 8A-\	.	8ff\	.	.
8b- 8d-X 8A-\	.	8aa-\	.	]
8b-J 8d- 8A-\	.	8ggn\J	.	.
=17	=17	=17	=17	=17
*ped	*	*	*	*
!!LO:TX:a:i:t=a tempo
!LO:TUP:a	!	!	!	!
N(12AA-\L	.	4bb-\)	.	pp
12E-\	.	.	.	.
12A-\J	.	.	.	.
4ryy	.	12cn/L	.	.
.	.	12g-X/	.	.
.	.	12b-/J	.	.
!LO:TUP:a	!	!LO:TX:b:i:t=m.s.	!	!
12ccn>\L	.	4ryy	.	.
12gg-X>\	.	.	.	.
12bb->\J	.	.	.	.
*	*	*8va	*	*
4ryy	.	12cccny/L	.	.
.	.	12ggg-/	.	.
.	.	12bbb-/J	.	.
=18	=18	=18	=18	=18
16rb>	.	16eeee-/LL	.	.
!	!	!LO:TX:b:i:t=m.s.	!	!
&(16gg->\LL	.	16bbb-/	.	.
16ff>\	.	16dddd-/	.	.
16ee->\JJ	.	16ccccn/JJ	.	.
16dd->\LL	.	16bbb-/LL	.	.
16ee->\	.	16ggg-/	.	.
16dd->\	.	16eeee- 16bbb-/	.	.
16ccn>\JJ	.	16aaa-/JJ	.	.
16b->\LL	.	16ggg-/LL	.	.
16cc>\	.	16eee-/	.	.
16b->\	.	16aaa- 16ggg-/	.	.
16a->\JJ	.	16fff/JJ	.	.
16g->\LL	.	16eee-/LL	.	.
16a->\	.	16cccn/	.	.
16g->\	.	16eee-/	.	.
*Xped	*	*	*	*
16f>\JJ	.	16ddd-/JJ	.	.
*	*	*X8va	*	*
!!LO:LB:g=original
=19	=19	=19	=19	=19
*	*	*^	*	*
16ee->\LL	.	16cccn/LL	2ryy	.	.
16ff>\	.	16aa-/	.	.	.
16ee->\	.	16eee- 16ccc/	.	.	.
16dd->\JJ	.	16bb-/JJ	.	.	.
16ccn>\LL	.	16aa-/LL	.	.	.
16cc-X>\	.	16ee-/	.	.	.
16b->\	.	16aa- 16gg-/	.	.	.
16a->\JJ	.	16ff/JJ	.	.	.
16g->\LL	.	16ee-/LL	8ryy	.	.
16f>\	.	16b-/	.	.	>
!	!	!LO:TX:a:i:t=calando	!	!	!
16f-X>\	.	16dd-/	[>8ee-\	.	.
16e->\JJ	.	16ccn/JJ	.	.	.
16d->\LL	.	16b-/LL	4ee-\]	.	.
16e->\	.	16g-/	.	.	]
16d->\	.	16b-/	.	.	.
16cn>\JJ&)	.	16a-/JJN)	.	.	.
*	*	*v	*v	*	*
=20	=20	=20	=20	=20
*	*	*^	*	*
*	*	*	*^	*	*
*	*	*Xtuplet	*tuplet	*Xtuplet	*	*
!!LO:TX:a:i:t=a tempo
!	!	!	!LO:TUP:a	!	!	!
[<8DD-\L	.	24ryy	(24DD-</LL	24ryy	.	.
.	.	24ryy	N[[<24AA-</	24ryy	.	.
.	.	24ryy	N[[<24D-</	24ryy	.	.
[8D-JN]] [<8AA-N]] 8DD-\_	.	[<12.F/	24Fn\	24ryy	.	.
.	.	.	24A-\	[<12A-/	.	.
.	.	.	[24d-\JJ	.	.	.
2D-] 2AA-] 2DD-/]	.	[2f 2d-] 2A-] 2F^>/])	4ryy	4ryy	.	.
.	.	.	2ryy	2ryy	.	.
4r	.	4f/_	.	.	.	.
*	*	*v	*v	*v	*	*
=21	=21	=21	=21	=21
!	!	!LO:TX:b:i:t=espressivo	!	!LO:HP:a
2r	.	(>8f/L]	.	<
.	.	8g-/	.	.
!	!	!	!	!LO:HP:a
.	.	8b-/	.	[>
.	.	8a-/J	.	]
8r	.	8f/L	.	.
!	!	!	!	!LO:HP:b=2
(<8A-\L	.	8f-X/	.	<
8c-X\	.	8e-/	.	.
!	!	!	!	!LO:HP:b=2
.	.	.	.	[>
8B-\J	.	[8dn/J)	.	.
.	.	.	.	]
!!LO:LB:g=original
=22	=22	=22	=22	=22
*^	*	*^	*	*
8G-\L	2ryy	.	[2b-/	8dnX\L]	.	.
!	!	!	!	!	!	!LO:HP:a
8F\	.	.	.	N(<8fn\	.	<
8F-X\	.	.	.	8a-\	.	.
.	.	.	.	.	.	[
!	!	!	!	!	!	!LO:HP:a
8E-\J	.	.	.	8gn\J	.	>
8e-/L	4c-X\	.	(>8b-/L]	8ryy	.	]
8dn/	.	.	8a-/J	[4.a-\	.	.
8d-X/	8B-\L	.	[4ee-/	.	.	.
8cn/J	8B--\J	.	.	.	.	.
*v	*v	*	*	*	*	*
=23	=23	=23	=23	=23	=23
2c-XN) 2A-\)	.	4ee-/]	2a-\]	.	.
.	.	[4ff-X/	.	.	pp
2d-: 2G-:\	.	4aa-::/	2ff-::] 2b-::\	.	.
.	.	4gg-/)	.	.	.
=24	=24	=24	=24	=24	=24
*	*	*	*^	*	*
*	*	*	*tuplet	*Xtuplet	*	*
!	!	!	!LO:TX:t=P:problem:mixed beam	!	!	!LO:DY:a:t=meno %s
!	!	!	!LO:TUP:a	!	!	!
[<8CC-\L	.	24ryy	(24CC-</LL	24ryy	.	p
.	.	24ryy	N[[<24GG-</	24ryy	.	.
.	.	24ryy	N[[<24C-</	24ryy	.	.
[8C-JN]] [<8GG-N]] 8CC-\_]	.	[[<12.E-/	24E-\	24ryy	.	.
.	.	.	24G-\	[<12G-/	.	.
.	.	.	[24c-\JJ	.	.	.
2C-] 2GG-] 2CC-/]	.	[2e- 2c-] 2G-] 2E-^>/])	4ryy	4ryy	.	.
.	.	.	2ryy	2ryy	.	.
4r	.	4e-/_>	.	.	.	.
*	*	*v	*v	*v	*	*
!!LO:LB:g=original
=25	=25	=25	=25	=25
!	!	!LO:TX:b:i:t=espress.	!	!
2r	.	(>8e-/L]	.	.
.	.	8f-X/	.	.
.	.	8a-/	.	.
.	.	8g-/J	.	.
!	!	!	!	!LO:HP:t=poco cresc.
8r	.	8e-/L	.	<
&(<8G-\L	.	8e--/	.	.
8B--\	.	8d-/	.	.
8A-\J	.	[8cn/J	.	.
=26	=26	=26	=26	=26
*^	*	*^	*	*
8F-X\L	2ryy	.	[2a-/	8c\L]	.	.
!	!	!	!	!LO:N:acc=n-	!	!
8E-\	.	.	.	N(8e-X\	.	.
8E--\	.	.	.	8g-\	.	.
8D-\J	.	.	.	8fn\J	.	.
8d-/L	4B--\	.	8a-/L]	2ryy	.	.
8cn/	.	.	[8g-/J	.	.	.
8c-X/	8A-\L	.	(>4dd- &(<4g-/]	.	.	.
!LO:N:acc=n-	!	!	!	!	!	!
8B-X/J	8Gn\J	.	.	.	.	.
*v	*v	*	*	*	*	*
*	*	*v	*v	*	*
=27||	=27||	=27||	=27||	=27||
*k[f#c#g#]	*	*k[f#c#g#]	*	*
*	*	*^	*	*
2AN) 2F#\&)	.	4cc#/)	2f#\&)	.	<
.	.	4dd/)	.	.	.
2d: 2B: 2E:\	.	(4ff# 4f#/	2dd: 2g#:\	.	.
.	.	.	.	.	[
.	.	4ee 4e/)	.	.	.
!!LO:LB:g=original
=28	=28	=28	=28	=28	=28
*^	*	*	*	*	*
!	!	!	!	!	!	!LO:DY:t=%s poco rubato
2.c#: [<2.E: [2.AA:\	2.ryy	.	[2ee: 2cc#: 2a: [2e:/	2.ryy	.	mf
.	.	.	8ee]L 8e/]	.	.	.
.	.	.	(>8ff# 8f#/	.	.	.
4B/	4E] 4AA\]	.	8aa 8a/	4dd\	.	.
.	.	.	8gg#J 8g#/)	.	.	.
=29	=29	=29	=29	=29	=29	=29
(8E/L	2.AA\	.	(4aa 4cc# 4a\	2.ryy	.	<
8F#/	.	.	.	.	.	.
!	!	!	!LO:TX:a:i:t=sempre più cresc. ed appassionato	!	!	!LO:DY:a
8A/	.	.	[4ee 4dd [4e/)	.	.	.
8G#/J	.	.	.	.	.	.
4A/)	.	.	8ee]L 8cc# 8e/]	.	.	.
.	.	.	(>8ff# 8f#/	.	.	.
4B: 4E: 4AA:\	4ryy	.	8aa 8a/	4dd\	.	.
.	.	.	8gg#J 8g#/)	.	.	.
=30	=30	=30	=30	=30	=30	=30
(8c#::/L	2.E:: 2.AA::\	.	(8bbL 8b/	4cc#\	.	.
8F#/	.	.	8aaJ 8a/)	.	.	.
8A/	.	.	([4ee 4dd [4e/	4ryy	.	.
8G#/J	.	.	.	.	.	.
8B/L	.	.	8ee]L 8cc# 8e/]	4ryy	.	[
8A/J)	.	.	8ff# 8f#/	.	.	.
(4B [4E [4AA\	4ryy	.	8aa 8a/	4dd\	.	.
.	.	.	8gg#J 8g#/	.	.	.
*	*	*	*v	*v	*	*
!!LO:LB:g=original
=31	=31	=31	=31	=31	=31
8c#L 8E] 8AA\]	2ryy	.	8aaL 8a\	.	.
!	!	!	!LO:TX:a:i:t=stringendo molto	!	!
8d\J)	.	.	8bb 8b\	.	.
[4f# [4A\	.	.	8ddd [[<8aa 8dd\	.	.
.	.	.	8ccc#J 8cc#\	.	.
8f#/L]	4A\]	.	8dddL 8aa]] 8dd\	.	.
(8e/J	.	.	8eee 8ee\	.	.
*clefG2	*	*	*	*	*
8b::/L	4d:: 4A::\	.	8ggg# 8gg#\	.	.
8b#X/J	.	.	8fff#J 8ff#\)	.	.
=32	=32	=32	=32	=32	=32
*	*	*	*8va	*	*
4cc# 4e 4A/)	4ryy	.	(8eeeL 8ee\	.	.
.	.	.	8fff# 8ff#\	.	.
*clefF4	*	*	*	*	*
4ryy	4G#~<\	.	8ggg# 8gg#\	.	.
.	.	.	8aaaJ 8aa\	.	.
4a:: 4d#X::/	4F#~::\	.	8bbbL 8bb\	.	.
.	.	.	8cccc# 8ccc#\	.	.
4re	4Fn~\	.	8dddd 8ddd\	.	.
.	.	.	8dddd#XJ 8ddd#X\	.	.
=33	=33	=33	=33	=33	=33
2a:: 2c#::/	4.E~::\	.	8ffff#XL 8fff#X\	.	.
!	!	!	!LO:TX:b:i:t=molto-rit.-e-dim.:ext=s:problem:text with extention lines	!	!
.	.	.	8dddd#X 8ddd#X\	.	>
.	.	.	8eeee 8eee\	.	.
.	8E-X~\	.	8eeee#XJ 8eee#X\	.	.
4g#^::/	2B#X:: 2D::\	.	8gggg#L 8ggg#\	.	.
.	.	.	8eeee# 8eee#\	.	.
4f#^/	.	.	8ffff# 8fff#\	.	.
.	.	.	8ggggnJ 8gggn\	.	]]
*v	*v	*	*	*	*
!!LO:PB:g=original
=34||	=34||	=34||	=34||	=34||
*k[b-e-a-d-g-c-]	*	*k[b-e-a-d-g-c-]	*	*
*ped	*	*	*	*
!LO:TUP:a	!	!	!	!
N(>12DD-\L	.	4aaaa- 4aaa-\)	.	p
*	*	*X8va	*	*
!!LO:TX:a:i:t=a tempo
12AA-\	.	.	.	.
!	!	!	!	!LO:HP:b=2
12D-\J	.	.	.	>
*	*	*tuplet	*	*
!	!	!LO:TUP:b	!	!
4ryy	.	12F</L	.	.
.	.	12c-</	.	.
.	.	12e-</J	.	.
!LO:TUP:a	!	!	!	!
12f>\L	.	4ryy	.	.
12cc->\	.	.	.	.
12ee->\J	.	.	.	.
!	!	!LO:TUP:b	!	!
4ryy	.	12ff/L	.	.
.	.	12ccc-/	.	.
.	.	12eee-/J	.	]
=35	=35	=35	=35	=35
*	*	*8va	*	*
!	!	!LO:TX:b:i:t=dolcissimo	!	!
16rb>	.	16aaa-/LL	.	.
(16cc->\LL	.	16eee-/	.	.
16b->\	.	16ggg-/	.	.
16a->\JJ	.	16fff/JJ	.	.
16g->\LL	.	16eee-/LL	.	.
16a->\	.	16ccc-/	.	.
16g->\	.	16aaa- 16eee-/	.	.
16f>\JJ	.	16ddd-/JJ	.	.
16e->\LL	.	16ccc-/LL	.	.
16f>\	.	16aa-/	.	.
16e->\	.	16ddd- 16ccc-/	.	.
16d->\JJ	.	16bb-/JJ	.	.
*	*	*X8va	*	*
16cc->\LL	.	16aa-/LL	.	.
16dd->\	.	16ff/	.	.
*Xped	*	*	*	*
16cc->\	.	16aa-/	.	.
16b->\JJ	.	16gg-/JJ	.	.
!!LO:LB:g=original
=36	=36	=36	=36	=36
16a->\LL	.	16ff/LL	.	.
16b->\	.	16dd-/	.	.
16a->\	.	16aa- 16ff/	.	.
16g->\JJ	.	16ee-/JJ	.	.
16f>\LL	.	16dd-/LL	.	.
16f-X>\	.	16a-/	.	.
16e->\	.	16dd- 16cc-/	.	.
16d->\JJ	.	16b-/JJ	.	.
16c-\LL	.	16a-/LL	.	.
16B-\	.	16e-/	.	.
16B--\	.	16a- 16g-/	.	.
16A-\JJ	.	16fn/JJ	.	.
16G-\LL	.	16e-/LL	.	.
16A-\	.	16c-/	.	.
16G-\	.	16e-/	.	.
16Fn\JJ	.	16d-/JJ	.	.
=37	=37	=37	=37	=37
*	*	*^	*	*
16E-\LL	.	8r	16c-\LL	.	.
16G-\	.	.	16A-\	.	.
16F\	.	[8d-^/	16c-\	.	.
16F-X\JJ	.	.	16B-\JJ	.	.
16E-\LL	.	2.d-/]	16c-\LL	.	.
16G-\	.	.	16A-\	.	.
16Fn\	.	.	16c-\	.	.
16F-X\JJ	.	.	16B-\JJ	.	.
!!LO:TX:a:i:t=pochissimo\nslentando
16E-\LL	.	.	16c-\LL	.	.
16G-\	.	.	16A-\	.	.
16Fn\	.	.	16c-\	.	.
16F-X\JJ	.	.	16B-\JJ	.	.
16E-\LL	.	.	16c-\LL	.	.
16G-\	.	.	16A-\	.	.
16Fn\	.	.	16c-\	.	.
16En\JJ	.	.	16B-\JJ	.	.
!!LO:LB:g=original
=38	=38	=38	=38	=38	=38
!!LO:TX:a:i:t=a tempo
(<2.Fn [2.D-\)	.	(>2.d- 2.A-/N)	2.ryy	.	.
!	!	!	!	!	!LO:HP:a
.	.	.	.	.	<
4G- 4D-\]	.	8e-/L	4B-\	.	.
.	.	8g-/J	.	.	[
=39	=39	=39	=39	=39	=39
*^	*	*	*	*	*
(8G-/L	2C-\	.	8b-/L	4e-\	.	.
8A-/J	.	.	8f/J	.	.	.
.	.	.	.	.	.	.
[4F/	.	.	[4a-/	2d-\	.	.
!	!	!	!	!	!	!LO:HP:a
.	.	.	.	.	.	>
8F/L]	4BB-\	.	8a-/L]	.	.	.
!	!	!	!LO:TX:b:i:t=poco rall.	!	!	!
8G-/J	.	.	8e-/	.	.	.
4E-/)	4BB--\	.	8g-/	4cn\	.	.
.	.	.	8f/J	.	.	]
=40	=40	=40	=40	=40	=40	=40
1F	2AA-\	.	2.e-/	1f 1c-X	.	.
.	2AA--\	.	.	.	.	.
.	.	.	[4d-/	.	.	.
*v	*v	*	*	*	*	*
*	*	*v	*v	*	*
!!LO:LB:g=original
=41	=41	=41	=41	=41
!!LO:TX:a:i:t=a tempo
8G- 8D- 8GG-\)	.	8d-] 8B-/)	.	.
*clefG2	*	*	*	*
8b-L 8g- 8d-/	.	8r	.	.
*	*	*8va	*	*
!	!	!LO:TX:b:i:t=teneramente	!	!
8b- 8g- 8d-/	.	(>2ddd-: 2dd-:/	.	.
8b-J 8g- 8d-/	.	.	.	.
8b-L 8g- 8d-/	.	.	.	.
8b- 8g- 8d-/	.	.	.	.
8b- 8g- 8cn/	.	8eee-L 8ee-\	.	.
8b-J 8e- 8c/	.	8ggg-J 8gg-\	.	.
=42	=42	=42	=42	=42
8g-L 8e- 8c-X/	.	8bbb-:L 8bb-:\	.	.
8a- 8e- 8c-/	.	8fffJ 8ff\	.	.
8f 8e- 8c-/	.	[4aaa- [4aa-\	.	.
8fJ 8d- 8c-/	.	.	.	.
8fL 8d- 8B-/	.	8aaa-]L 8aa-\]	.	.
8g- 8d- 8B-/	.	8eee- 8ee-\	.	.
8g- 8cn 8B--/	.	8ggg- 8gg-\	.	.
8g-J 8c 8B--/	.	8fffJ 8ff\	.	.
*	*	*	*	*
*clefF4	*	*X8va	*	*
!!LO:LB:g=original
=43	=43	=43	=43	=43
8g-L 8c-X 8A-\	.	4.eee- 4.ee-\	.	.
8g- 8c- 8A-\	.	.	.	.
8f 8c- 8A-\	.	.	.	.
8fJ 8c- 8A-\	.	8ddd- 8dd-\	.	.
8fL 8c- 8A-\	.	4aa- 4a-\	.	.
8f 8c- 8A-\	.	.	.	.
8f 8d- 8A--\	.	4aan 4an\	.	.
!	!	!LO:TX:a:i:t=poco a poco cresc.-:ext=ud:problem:text with extention lines	!	!LO:HP:a
8fJ 8d- 8A--\	.	.	.	<
=44	=44	=44	=44	=44
(<8f-XL 8d- 8A--\	.	4bb- 4b-\	.	.
8f- 8d- 8G-\)	.	.	.	.
!LO:N:n=2:acc=n-	!	!	!	!
8f- 8A-X 8G-\	.	8ccc-L 8cc-\	.	.
8f-J 8B- 8G-\	.	8ddd-J 8dd-\	.	.
!LO:TX:t=P:problem:mixed beam	!	!	!	!
8CC-^/L	.	8dddn 8ddn\	.	.
(8g- 8c- 8G-\	.	4eee- 4ee-\)	.	.
8gn 8c- 8Gn\	.	.	.	.
8a-J 8c- 8A-\)	.	(8eee- 8ee-\	.	[[
!!LO:LB:g=original
=45	=45	=45	=45	=45
(8b--L 8e- 8B--\	.	4cccn 4ccn\	.	.
8a- 8e- 8A-\)	.	.	.	.
!LO:N:n=2:acc=n-	!	!	!	!
8a- 8B-X 8A-\	.	8ddd-L 8dd-\	.	.
8a-J 8cn 8A-\	.	8eee-J 8ee-\	.	.
!LO:TX:t=P:problem:mixed beam	!	!	!	!
8DD-^/L	.	8eeen 8een\	.	.
(8a- 8d- 8A-\	.	4fff 4ff\)	.	.
8an 8d- 8An\	.	.	.	.
!LO:SIC:v:o=8b--J 8d- 8B-\)	!	!	!	!
8b-J 8d- 8B-\)	.	(8fff 8ff\	.	.
=46	=46	=46	=46	=46
(8cc-XL 8fn 8c-X\	.	4dddn 4ddn\	.	.
8b- 8f 8B-\)	.	.	.	.
8b- 8cn 8B-\	.	8eee-L 8ee-\	.	.
8b-J 8dn 8B-\	.	8fffJ 8ff\	.	.
*	*	*8va	*	*
8g-L 8f 8B--\	.	4.ggg- 4.gg-\	.	.
8g- 8e- 8B--\	.	.	.	.
8g- 8d-X 8A-\	.	.	.	.
8g-J 8c 8A-\	.	8aaa- 8aa-\)	.	.
*	*	*	*	*
!!LO:PB:g=original
=47	=47	=47	=47	=47
*	*	*	*	*
.	.	(>8qddd- 8qbb- 8qgg- 8qdd-/	.	f
*	*	*	*	*
8g-:L 8B-: 8D-:\	.	4dddd- 4ddd-\)	.	.
8b- 8g- 8d- 8B-\	.	.	.	.
8b- 8g- 8d- 8B-\	.	8bbb-L 8bb-~\	.	.
8b-J 8g- 8d- 8B-\	.	8ggg-J 8gg-~\	.	.
8b--L 8g- 8d- 8B--\	.	8eee-L 8ee-~>/	.	.
.	.	(>16qqeee-/LL	.	.
.	.	16qqfff/JJ	.	.
8b-- 8g- 8cn 8B--\	.	8eee-J 8ee-/	.	.
8a- 8g- 8c-X 8A-\	.	4ddd- 4dd-/)	.	.
8a-J 8f 8c- 8A-\	.	.	.	.
=48	=48	=48	=48	=48
.	.	(>8qddd- 8qbb- 8qgg- 8qdd-/	.	.
8g-:L 8B-: 8D-:\	.	4dddd- 4ddd-\)	.	.
8b- 8g- 8d- 8B-\	.	.	.	.
8b- 8g- 8d- 8B-\	.	8bbb-L 8bb-~\	.	.
8b-J 8g- 8d- 8B-\	.	8ggg-J 8gg-~\	.	.
8b--L 8g- 8d- 8B--\	.	8eee-L 8ee-~>/	.	.
.	.	(>16qqeee-/LL	.	.
.	.	16qqfff/JJ	.	.
8b-- 8g- 8cn 8B--\	.	8eee-J 8ee-/	.	.
8a- 8g- 8c-X 8A-\	.	8.ddd-L 8.dd-/)	.	.
8a-J 8f 8c- 8A-\	.	.	.	.
.	.	16ddd-Jk 16dd-/	.	.
*	*	*	*	*
!!LO:LB:g=original
=49	=49	=49	=49	=49
.	.	(>8qddd- 8qdd-/	.	.
*	*	*	*	*
8g-:L 8B-: 8D-:\	.	(4bbb- 4bb-\)	.	.
8b- 8g- 8d- 8B-\	.	.	.	.
8cc-X 8g- 8e- 8B--\	.	8ggg-L 8gg-\	.	.
8cc-J 8g- 8e- 8B--\	.	8eee-J 8ee-\)	.	.
8cc-L 8g- 8e- 8A-\	.	(4ggg- 4gg-\	.	.
8cc- 8g- 8e- 8A-\	.	.	.	.
*	*	*X8va	*	*
8cc- 8f 8e- 8A-\	.	8eee-L 8ee-\	.	.
8fJ 8e- 8A-\	.	8ccc-J 8cc-\)	.	.
=50	=50	=50	=50	=50
8g-L 8e- 8B- 8G-\	.	(8eee-L 8ee-\	.	.
8g- 8e- 8B- 8G-\	.	8ccc- 8cc-\	.	.
8f 8e- 8A- 8F\	.	8bb- 8b-\	.	.
!	!	!	!	!LO:HP:a:t=dim. molto
8fJ 8dn 8A- 8F\	.	8aa-J 8a-\	.	>
8f-XL 8d-X 8G- 8F-X\	.	8bb-L 8b-\	.	.
8f- 8d- 8G- 8F-\	.	8gg- 8g-\	.	.
8e- 8cn 8G- 8E-\	.	8aa- 8a-\	.	.
8e-J 8c 8G- 8E-\	.	8bb-J 8b-\)	.	.
!!LO:LB:g=original
=51	=51	=51	=51	=51
8g-:L 8B-: 8D-:\	.	(4ddd-: 4gg-: 4dd-:\	.	p
8g- 8d- 8B-\	.	.	.	.
8b- 8g- 8d-\	.	8bb-\L	.	.
8b-J 8g- 8d-\	.	8gg-\J	.	.
8b-L 8g- 8cn\	.	8ee-\L)	.	.
!	!	!LO:TUP:a	!	!
8b-- 8g- 8c\	.	(24ee-\L	.	.
.	.	24ff\	.	.
.	.	24ee-\JJ	.	.
8a- 8g- 8c-X\	.	4dd-\)	.	.
8a-J 8f 8c-\	.	.	.	.
=52	=52	=52	=52	=52
8a-L 8f 8B-\	.	(4ddd-\	.	.
8a- 8f 8B-\	.	.	.	.
8g- 8f 8B-\	.	8bb-\L	.	.
8g-J 8e- 8B-\	.	8gg-\J	.	.
8g-L 8cn 8B--\	.	8ee-\L)	.	.
!	!	!LO:TUP:a	!	!
8g- 8c 8B--\	.	(24ee-\L	.	.
.	.	24ff\	.	.
.	.	24ee-\JJ	.	.
8g- 8c-X 8A-\	.	4dd-\)	.	.
8fJ 8c- 8A-\	.	.	.	.
!!LO:LB:g=original
=53	=53	=53	=53	=53
*	*	*^	*	*
8d-L 8BB-\	.	(4gg-/	8re	.	.
8d- 8BB-\	.	.	8g-\L	.	.
!	!	!	!	!	!LO:HP:t=poco cresc.
8C-\	.	8ee-/L	8g- 8e-\	.	<
8C-\J	.	8cc-/J	8g-J 8e-\	.	.
8Cn/L	.	8b-/L)	8g-L 8e-\	.	.
8C/	.	(24b-/L	8g- 8e-\	.	.
.	.	24cc-X/	.	.	.
.	.	24b-/JJ	.	.	.
8D-/	.	4a-/)	8g- 8e-\	.	.
8D-/J	.	.	8fJ 8e-\	.	.
=54	=54	=54	=54	=54	=54
8FL 8BB-\	.	(4dd-/	8d-\L	.	.
8F 8BB-\	.	.	8d-\	.	.
.	.	.	.	.	>
8G- 8BB-\	.	8b-/L	8d-\	.	.
8G-J 8BB-\	.	8g-/J	8d-\J	.	.
8G-L 8BB--\	.	8e-/L)	8d-\L	.	.
8G- 8BB--\	.	(24e-/L	8cn\	.	.
.	.	24f/	.	.	.
.	.	24e-/JJ	.	.	]
8G- 8AA-\	.	4d-/)	8c-X\	.	.
8FJ 8AA-\	.	.	8c-\J	.	.
!!LO:LB:g=original
=55	=55	=55	=55	=55	=55
!	!	!LO:TX:a:i:t=espressivo	!	!	!
8G-L 8D- 8GG-\	.	([2b-/	8d-L 8B-\	.	.
8G- 8D- 8GG-\	.	.	8d- 8B-\	.	<
8G- 8Cn 8GG-\	.	.	8dn 8B-\	.	.
8G-J 8C 8GG-\	.	.	8dJ 8B-\	.	.
.	.	.	.	.	[
8G-L 8C-X 8GG-\	.	8b-/L]	8e-L 8B-\	.	.
8G- 8C- 8GG-\	.	8g-/J	8e- 8B-\	.	>
8D-X\	.	4a-/)	8g- 8c-\	.	.
8D-\J	.	.	8fJ 8c-\	.	]
=56	=56	=56	=56	=56	=56
8G-L 8D- 8GG-\	.	([2b-/	8d-XL 8B-\	.	.
!	!	!	!	!	!LO:DY:a:t=più %s
8G- 8D- 8GG-\	.	.	8d- 8B-\	.	p
8G- 8Cn 8GG-\	.	.	8dn 8B-\	.	.
8G-J 8C 8GG-\	.	.	8dJ 8B-\	.	.
8G-L 8C-X 8GG-\	.	8b-/L]	8e-L 8B-\	.	.
8G- 8C- 8GG-\	.	8g-/J	8e- 8B-\	.	.
8D-X\	.	4a-/)	8g- 8c-\	.	.
8D-\J	.	.	8fJ 8c-\	.	.
*	*	*v	*v	*	*
!!LO:LB:g=original
=57	=57	=57	=57	=57
2G-: 2D-: 2GG-:/	.	([2b-: 2g-: 2d-: 2B-:/	.	.
2r	.	8b-\L]	.	.
.	.	8cc-\	.	.
.	.	8ee-\	.	.
.	.	8dd-\J	.	<
=58	=58	=58	=58	=58
1r	.	8gg-\L	.	.
.	.	8a-\	.	.
.	.	.	.	[
.	.	8cc-\	.	.
.	.	8b-\J	.	.
.	.	8dd-/L	.	.
.	.	8f/	.	>
!	!	!LO:TX:b:i:t=calando	!	!
.	.	8a-/	.	.
.	.	8g-/J	.	.
.	.	.	.	]
=59	=59	=59	=59	=59
*	*	*^	*	*
2r	.	4b-/	2rA	.	.
.	.	2e-/	.	.	.
2AA- 2DD-/	.	.	2c- 2F\	.	.
.	.	4f/	.	.	.
*	*	*v	*v	*	*
=60	=60	=60	=60	=60
1GG- 1DD- 1GGG-	.	1g- 1B- 1G-)	.	.
==	==	==	==	==
*-	*-	*-	*-	*-
!!!system-decoration: {(g1)}
!!!RDF**kern: i = editorial accidental
!!!RDF**kern: > = above
!!!RDF**kern: < = below
!!!RDF**kern: N = linked
!!!RDF**dynam: > = "dim.", fontstyle= "italic"
!!!ENC: Andrzej Gręziak
!!!EED: Katarzyna Serwa
!!!END: 2023-10-20
!!!EEV: 2023-11-16
